images/icon/wordpress.svg

<?xml version="1.0" encoding="UTF-8" standalone="no"?>
<!-- Generator: Adobe Illustrator 16.0.0, SVG Export Plug-In . SVG Version: 6.00 Build 0)  -->
<!DOCTYPE svg  PUBLIC '-//W3C//DTD SVG 1.1//EN'  'http://www.w3.org/Graphics/SVG/1.1/DTD/svg11.dtd'>
<svg id="Capa_1" style="enable-background:new 0 0 100 100" xmlns="http://www.w3.org/2000/svg" xml:space="preserve" height="100px" viewBox="0 0 100 100" width="100px" version="1.1" y="0px" x="0px" xmlns:xlink="http://www.w3.org/1999/xlink">
	<path d="m50 0c-27.569 0-50 22.432-50 50 0 27.57 22.431 50 50 50 27.568 0 50-22.43 50-50 0-27.568-22.432-50-50-50zm0 2.281c26.305 0 47.688 21.415 47.688 47.719 0 26.305-21.383 47.688-47.688 47.688-26.304 0-47.688-21.383-47.688-47.688 0-26.304 21.384-47.719 47.688-47.719zm0 4.844c-14.985 0-28.175 7.669-35.844 19.312 1.007 0.032 1.977 0.062 2.781 0.062 4.485 0 11.406-0.562 11.406-0.562 2.311-0.135 2.591 3.258 0.281 3.531 0 0-2.322 0.302-4.906 0.438l15.625 46.438 9.375-28.156-6.688-18.281c-2.311-0.136-4.5-0.438-4.5-0.438-2.312-0.137-2.031-3.667 0.281-3.531 0 0 7.067 0.562 11.281 0.562 4.484 0 11.438-0.562 11.438-0.562 2.312-0.135 2.594 3.258 0.281 3.531 0 0-2.324 0.302-4.906 0.438l15.501 46.093 4.281-14.312c1.852-5.936 3.279-10.174 3.279-13.844 0-5.303-1.898-8.987-3.529-11.844-2.174-3.535-4.221-6.528-4.221-10.062 0-3.942 2.977-7.594 7.188-7.594 0.189 0 0.378 0.021 0.562 0.031-7.628-6.992-17.8-11.25-28.966-11.25zm37.625 22.281c0.184 1.366 0.312 2.858 0.312 4.438 0 4.351-0.834 9.225-3.281 15.344l-13.094 37.874c12.75-7.434 21.313-21.239 21.313-37.062 0-7.457-1.902-14.485-5.25-20.594zm-76.813 3.125c-2.379 5.334-3.687 11.251-3.687 17.469 0 16.977 9.848 31.643 24.156 38.594l-20.469-56.063zm39.938 21.219l-12.875 37.406c3.844 1.131 7.916 1.719 12.125 1.719 4.994 0 9.792-0.838 14.25-2.406-0.113-0.184-0.227-0.382-0.312-0.594l-13.188-36.125z"/>
</svg>

<?xml version="1.0" encoding="iso-8859-1"?>
<!-- Generator: Adobe Illustrator 16.0.0, SVG Export Plug-In . SVG Version: 6.00 Build 0)  -->
<!DOCTYPE svg PUBLIC "-//W3C//DTD SVG 1.1//EN" "http://www.w3.org/Graphics/SVG/1.1/DTD/svg11.dtd">
<svg version="1.1" id="Capa_1" xmlns="http://www.w3.org/2000/svg" xmlns:xlink="http://www.w3.org/1999/xlink" x="0px" y="0px"
	 width="100px" height="100px" viewBox="0 0 100 100" style="enable-background:new 0 0 100 100;" xml:space="preserve">
<g>
	<path d="M50,0C22.431,0,0,22.432,0,50c0,27.57,22.431,50,50,50c27.568,0,50-22.43,50-50C100,22.432,77.568,0,50,0z M50,2.281
		c26.305,0,47.688,21.415,47.688,47.719c0,26.305-21.383,47.688-47.688,47.688C23.696,97.688,2.312,76.305,2.312,50
		C2.312,23.696,23.696,2.281,50,2.281z M50,7.125c-14.985,0-28.175,7.669-35.844,19.312c1.007,0.032,1.977,0.062,2.781,0.062
		c4.485,0,11.406-0.562,11.406-0.562c2.311-0.135,2.591,3.258,0.281,3.531c0,0-2.322,0.302-4.906,0.438l15.625,46.438l9.375-28.156
		L42.03,29.907c-2.311-0.136-4.5-0.438-4.5-0.438c-2.312-0.137-2.031-3.667,0.281-3.531c0,0,7.067,0.562,11.281,0.562
		c4.484,0,11.438-0.562,11.438-0.562c2.312-0.135,2.594,3.258,0.281,3.531c0,0-2.324,0.302-4.906,0.438L71.406,76l4.281-14.312
		c1.852-5.936,3.279-10.174,3.279-13.844c0-5.303-1.898-8.987-3.529-11.844c-2.174-3.535-4.221-6.528-4.221-10.062
		c0-3.942,2.977-7.594,7.188-7.594c0.189,0,0.378,0.021,0.562,0.031C71.338,11.383,61.166,7.125,50,7.125z M87.625,29.406
		c0.184,1.366,0.312,2.858,0.312,4.438c0,4.351-0.834,9.225-3.281,15.344L71.562,87.062C84.312,79.628,92.875,65.823,92.875,50
		C92.875,42.543,90.973,35.515,87.625,29.406z M10.812,32.531C8.433,37.865,7.125,43.782,7.125,50
		c0,16.977,9.848,31.643,24.156,38.594L10.812,32.531z M50.75,53.75L37.875,91.156c3.844,1.131,7.916,1.719,12.125,1.719
		c4.994,0,9.792-0.838,14.25-2.406c-0.113-0.184-0.227-0.382-0.312-0.594L50.75,53.75z"/>
</g>
<g>
</g>
<g>
</g>
<g>
</g>
<g>
</g>
<g>
</g>
<g>
</g>
<g>
</g>
<g>
</g>
<g>
</g>
<g>
</g>
<g>
</g>
<g>
</g>
<g>
</g>
<g>
</g>
<g>
</g>
</svg>
